X:1
T:Potruven Devanaye
T:Potruven Devanaye
T:Theodre Dinakaran
T:David Dinakaran
C:Theodre Dinakaran
Z:David Dinakaran
%%score [ 1 2 3 4 ]
L:1/8
M:7/8
K:C
V:1 treble nm="Soprano" snm="S."
V:2 treble nm="Alto" snm="A."
V:3 treble-8 nm="Tenor" snm="T."
V:4 bass nm="Bass" snm="B."
V:1
 z7 | z7 | z7 | z7 | z7 | z7 | z7 | z7 | z7 | z7 | z7 | z7 | z7 | z7 | z7 | z7 | z7 | z7 | z7 | %19
w: |||||||||||||||||||
 z7 | z7 | z7 | z7 | z7 | E3 E2 F2 | G F2 G4 | F3 F2 G2 | A G2 F4 | D D2 D2 E2 | D E2 F4 | %30
w: |||||paa van gal|ya vai yum|man ni peer|tha ya vaai|sa ka la noi|ka lai yum|
 F F2 G2 D2 | E3- E4 | G3 c2 e2 | d3 d4 | z7 | z7 | z7 | z7 | z7 | z7 | z7 | z7 | z7 | z7 | z7 | %45
w: gu na maa ki|neer *|en jee va|nai *||||||||||||
 z7 | z7 | z7 | z7 | z7 | c2 z c2 z2 | c d2 c2 z2 | c d2 c2 B2 | c2 B AG FE | G2 z G2 z2 | %55
w: ||||||||||
 G F2 E2 z2 | G A2 B2 G2 | c3- c4 | z7 | z7 |] %60
w: |||||
V:2
 z7 | z7 | z7 | z7 | z7 | z7 | z7 | z7 | z7 | z7 | z7 | z7 | z7 | z7 | z7 | z7 | z7 | z7 | z7 | %19
 z7 | z7 | z7 | z7 | z7 | z7 | z7 | z7 | z7 | z7 | z7 | z7 | z7 | z7 | z7 | z7 | z7 | z7 | z7 | %38
 z7 | z7 | z7 | z7 | z7 | z7 | z7 | z7 | z7 | z7 | z7 | z7 | z z C E2 G2 | z z C G2 E2 | %52
 z z B, E2 G2 | A2 G FE DC | G2 z G2 z2 | G F2 E2 z2 | G A2 B2 G2 | c3- c4 | z7 | z7 |] %60
V:3
 z7 | z7 | E3 G2 G2 | A G2 G2 E2 | G3 G2 G2 | G3 G2 G2 | G3- G4- | G3 z4 | G3 G2 G2 | G3 A2 c2 | %10
w: ||Po tru vaen|thei * va nai|po tru vaen|thei va na|yae *||po tru vaen|thei * va|
 c3- c4- | c3 z4 | A2 F A2 c2 | c2 e c2 c2 | d3 c2 A2 | c A2 G4 | G G2 G2 G2 | D D2 G2 G2 | %18
w: na yae||ka ni vu dan|ma hil vu dan|neer sei tha|sa ka la|u bha ka ran|ga lai en ni|
 G3 A2 G2 | E3 F2 A2 | G3- G2- G2 | G3 A2 c2 | G3- G4- | G3 z4 | z7 | z7 | z7 | z7 | z7 | z7 | z7 | %31
w: po tru vaen|thei va na|yae * *|thei va na|yae *|||||||||
 z7 | z7 | B3 B2 B2 | B3 B2 B2 | c3 c2 c2 | ^c3 d2 ^c2 | d3- d2 dc | B B2 c2 B2 | c3- c2 z2 | z7 | %41
w: ||kaa theer en|jee va nai|pon mu di|soo ti ni|rae * un than|ki ru bai yi|naal *||
 z7 | z7 | z7 | G3 G2 G2 | E3 F2 A2 | G3- G2- G2 | G3 A2 c2 | c3- c4- | c3 z4 | z z c z2 c2 | %51
w: |||en na lum|thei va na|yae * *|thei va na|yae *||Sa Sa|
 z z c d2 c2 | z z d e2 d2 | e2 d cB AG | G2 z G2 z2 | G F2 E2 z2 | G A2 B2 G2 | c3- c4 | z7 | %59
w: Sa Ri Sa|Ri Ga Ri|Ga Ri Sa Ni Dha Pa|Pa Pa|Pa Ma Ga|Pa Dha Ni Pa|Sa *||
 z7 |] %60
w: |
V:4
 z7 | z7 | z7 | z7 | z7 | z7 | z7 | z7 | z7 | z7 | z7 | z7 | z7 | z7 | z7 | z7 | z7 | z7 | z7 | %19
 z7 | z7 | z7 | z7 | z7 | z7 | z7 | z7 | z7 | z7 | z7 | z7 | z7 | z7 | z7 | z7 | z7 | z7 | z7 | %38
 z7 | z7 | z7 | z7 | z7 | z7 | z7 | z7 | z7 | z7 | z7 | z7 | C,2 z C,2 z2 | C,2 z C,2 z2 | %52
 C,2 z C,2 z2 | C,2 z C,2 z2 | G,,2 z G,,2 z2 | G,, F,,2 E,,2 z2 | G,, A,,2 B,,2 G,,2 | C,3- C,4 | %58
 z7 | z7 |] %60

